X: 818
T: Alasdair Mhic Cholla Ghasda
R: jig
M: 6/8
K: Eminor
Ecc BAG|E2E ccB|AG E2 EG|AAA Bc/c/B|AEG AA2|
ABe2 B2|A2 ABe2|B2 A2 EE|e/d/ec2 BE|GA A4|

